icons/barrel.svg

<?xml version="1.0" encoding="UTF-8" standalone="no"?>
<svg
   version="1.0"
   width="32"
   height="32"
   id="svg2"
   sodipodi:docname="barrel.svg"
   inkscape:version="1.2.2 (b0a8486541, 2022-12-01)"
   xmlns:inkscape="http://www.inkscape.org/namespaces/inkscape"
   xmlns:sodipodi="http://sodipodi.sourceforge.net/DTD/sodipodi-0.dtd"
   xmlns="http://www.w3.org/2000/svg"
   xmlns:svg="http://www.w3.org/2000/svg">
  <defs
     id="defs12" />
  <sodipodi:namedview
     id="namedview18"
     pagecolor="#ffffff"
     bordercolor="#eeeeee"
     borderopacity="1"
     inkscape:showpageshadow="0"
     inkscape:pageopacity="0"
     inkscape:pagecheckerboard="0"
     inkscape:deskcolor="#505050"
     showgrid="false"
     inkscape:zoom="181.01934"
     inkscape:cx="16.652917"
     inkscape:cy="14.644844"
     inkscape:window-width="2391"
     inkscape:window-height="1826"
     inkscape:window-x="1347"
     inkscape:window-y="249"
     inkscape:window-maximized="0"
     inkscape:current-layer="svg2"
     showguides="true">
    <sodipodi:guide
       position="16,21.058596"
       orientation="-1,0"
       id="guide163"
       inkscape:locked="false"
       inkscape:label=""
       inkscape:color="rgb(0,134,229)" />
    <sodipodi:guide
       position="27.817128,16"
       orientation="0,1"
       id="guide215"
       inkscape:locked="false"
       inkscape:label=""
       inkscape:color="rgb(0,134,229)" />
    <sodipodi:guide
       position="16,16"
       orientation="-0.25881905,0.96592583"
       id="guide1002"
       inkscape:locked="false"
       inkscape:label=""
       inkscape:color="rgb(0,134,229)" />
  </sodipodi:namedview>
  <style
     type="text/css"
     id="base">
      .outline {
        fill: none;
        stroke: black;
        stroke-width: 0.3;
      }
      .inline {
        fill: none;
        stroke: none;
        stroke-width: 0.8;
      }
      .fill {
        fill: none;
        stroke: none;
        stroke-width: 0.3;
      }
      .baseline {
        fill: none;
        stroke: black;
        stroke-width: 0.5;
      }
      .basepoint {
        fill: white;
        stroke: black;
        stroke-width: 0.5;
      }
      COLORING{}
  </style>
  <path
     class="fill uniform horizontal02 vertical02 vertical03 cross02"
     d="m 11.996579,16 c -0.566614,-2.093318 -0.385011,-4.219154 3.311629,-4.250439 3.69664,-0.03129 4.019936,2.331621 3.509291,4.250439 z"
     id="path3885" />
  <path
     class="fill vertical12"
     id="path3887"
     d="m 15.307719,11.750004 c -0.14046,0.0012 -0.273835,0.0046 -0.404297,0.01172 0.03823,0.02354 0.07436,0.05024 0.111328,0.07617 0.03741,0.02625 0.07525,0.05341 0.111328,0.08203 0.03608,0.02862 0.07076,0.05893 0.105469,0.08984 0.03471,0.03091 0.06827,0.06259 0.101562,0.0957 0.0333,0.03312 0.06582,0.06632 0.09766,0.101562 0.03184,0.03524 0.0634,0.07209 0.09375,0.109375 0.03035,0.03728 0.05908,0.076 0.08789,0.115235 0.02881,0.03924 0.0587,0.07802 0.08594,0.11914 0.02724,0.04112 0.0525,0.08404 0.07813,0.126953 0.02562,0.04291 0.05025,0.08624 0.07422,0.13086 0.02396,0.04462 0.04805,0.09047 0.07031,0.136718 0.02227,0.04625 0.04393,0.09283 0.06445,0.140626 0.02053,0.04779 0.03984,0.09723 0.05859,0.146484 0.01875,0.04926 0.0358,0.0978 0.05273,0.148437 0.01693,0.05064 0.03376,0.102361 0.04883,0.154297 0.01507,0.05194 0.02785,0.105051 0.04102,0.158203 0.01317,0.05315 0.02588,0.107825 0.03711,0.16211 0.01123,0.05429 0.022,0.108727 0.03125,0.164062 0.0092,0.05534 0.01816,0.109713 0.02539,0.166016 0.0072,0.0563 0.01241,0.114687 0.01758,0.171875 0.0052,0.05719 0.0087,0.113885 0.01172,0.171875 0.0031,0.05799 0.0049,0.117071 0.0059,0.175781 9.17e-4,0.05871 0.0013,0.116434 0,0.175781 -0.0013,0.05935 -0.0024,0.119786 -0.0059,0.179688 -0.0035,0.0599 -0.0099,0.119314 -0.01563,0.179687 -0.0058,0.06037 -0.01147,0.120878 -0.01953,0.181641 -0.0081,0.06076 -0.01693,0.122524 -0.02734,0.183594 -0.01041,0.06107 -0.02236,0.1223 -0.03516,0.183593 -0.0128,0.06129 -0.02774,0.122159 -0.04297,0.183594 -0.0023,0.0091 -0.0055,0.01824 -0.0078,0.02734 h 2.65625 c 0.510645,-1.918812 0.186871,-4.281286 -3.509765,-4.249996 z" />
  <path
     class="fill horizontal12"
     id="path4699"
     d="m 18.958983,14.064453 h -7.185545 c -0.05971,0.60335 0.04266,1.270575 0.222655,1.935547 h 6.822265 c 0.167907,-0.630933 0.243325,-1.309488 0.140625,-1.935547 z" />
  <path
     class="fill vertical13"
     id="path4640"
     d="m 15.307668,11.750011 c -0.331759,0.0028 -0.634974,0.02358 -0.91211,0.05859 0.03791,0.02337 0.07466,0.04849 0.111328,0.07422 0.03742,0.02625 0.07329,0.05341 0.109376,0.08203 0.03608,0.02862 0.07271,0.05893 0.107421,0.08984 0.03471,0.03091 0.06827,0.06259 0.101563,0.0957 0.0333,0.03312 0.06581,0.06632 0.09766,0.101562 0.03184,0.03524 0.0634,0.07209 0.09375,0.109375 0.03035,0.03728 0.05908,0.076 0.08789,0.115234 0.02881,0.03924 0.05675,0.07998 0.08398,0.121094 0.02724,0.04112 0.05446,0.08209 0.08008,0.125 0.02562,0.04291 0.05026,0.08624 0.07422,0.13086 0.02396,0.04462 0.04805,0.09047 0.07031,0.136718 0.02227,0.04625 0.04197,0.09283 0.0625,0.140625 0.02053,0.04779 0.0418,0.09723 0.06055,0.146485 0.01875,0.04926 0.0358,0.09975 0.05273,0.15039 0.01693,0.05064 0.03376,0.100408 0.04883,0.152344 0.01507,0.05194 0.02784,0.105051 0.04102,0.158203 0.01317,0.05315 0.02588,0.107825 0.03711,0.16211 0.01123,0.05428 0.022,0.108727 0.03125,0.164062 0.0092,0.05534 0.01621,0.111666 0.02344,0.167969 0.0072,0.0563 0.01437,0.112734 0.01953,0.169922 0.0052,0.05719 0.0087,0.113885 0.01172,0.171875 0.0031,0.05799 0.0049,0.117071 0.0059,0.175781 9.17e-4,0.05871 0.0013,0.118387 0,0.177734 -0.0013,0.05935 -0.0043,0.117833 -0.0078,0.177735 -0.0035,0.0599 -0.0079,0.121267 -0.01367,0.18164 -0.0058,0.06037 -0.01147,0.120878 -0.01953,0.181641 -0.0081,0.06076 -0.01693,0.120571 -0.02734,0.181641 -0.01041,0.06107 -0.02236,0.1223 -0.03516,0.183593 -0.01158,0.05544 -0.0255,0.110456 -0.03906,0.166016 h 3.153202 c 0.56845,-1.625019 -0.138036,-2.821602 -0.46496,-3.250497 -0.326924,-0.428895 -0.81654,-0.658149 -1.290823,-0.779437 C 16.588291,11.848778 15.88864,11.7543 15.598237,11.752151 Z"
     sodipodi:nodetypes="cccssscsscsscsssscscccccssccsscczzcc" />
  <path
     class="fill vertical23"
     id="path4637"
     d="m 16.206271,11.796872 c 0.03791,0.02337 0.07466,0.04654 0.111328,0.07227 0.03741,0.02625 0.07525,0.05536 0.111329,0.08398 0.03608,0.02862 0.07076,0.05698 0.105468,0.08789 0.03471,0.03091 0.06827,0.06454 0.101563,0.09766 0.0333,0.03312 0.06581,0.06632 0.09766,0.101562 0.03184,0.03524 0.0634,0.0721 0.09375,0.109375 0.03035,0.03728 0.06103,0.07599 0.08984,0.115235 0.02881,0.03924 0.05675,0.07802 0.08398,0.11914 0.02724,0.04112 0.05251,0.08404 0.07813,0.126954 0.02562,0.04291 0.05025,0.08624 0.07422,0.130859 0.02396,0.04462 0.04805,0.09047 0.07031,0.136719 0.02227,0.04625 0.04393,0.09283 0.06445,0.140625 0.02053,0.04779 0.03984,0.09723 0.05859,0.146484 0.01875,0.04926 0.0358,0.0978 0.05273,0.148437 0.01693,0.05064 0.03376,0.102361 0.04883,0.154297 0.01507,0.05194 0.02785,0.105051 0.04102,0.158203 0.01317,0.05315 0.02588,0.105872 0.03711,0.160157 0.01123,0.05429 0.022,0.11068 0.03125,0.166015 0.0092,0.05533 0.01816,0.109713 0.02539,0.166016 0.0072,0.0563 0.01242,0.114687 0.01758,0.171875 0.0052,0.05719 0.0087,0.113885 0.01172,0.171875 0.0031,0.05799 0.0069,0.117072 0.0078,0.175781 9.17e-4,0.05871 -6.86e-4,0.116435 -0.002,0.175781 -0.0013,0.05935 -0.0024,0.119786 -0.0059,0.179688 -0.0035,0.0599 -0.0079,0.119314 -0.01367,0.179688 -0.0058,0.06037 -0.01342,0.120877 -0.02148,0.18164 -0.0081,0.06076 -0.01693,0.122524 -0.02734,0.183594 -0.01041,0.06107 -0.02236,0.1223 -0.03516,0.183594 -0.01238,0.05929 -0.02636,0.118306 -0.04102,0.177734 h 1.34375 c 0.465746,-1.750101 0.237205,-3.867737 -2.611328,-4.203125 z" />
  <path
     class="inline cross12"
     d="m 15.598237,11.752151 c 0.325462,0.834045 0.966994,2.05214 0.565938,3.903316"
     id="path6944"/>
  <path
     class="inline cross12"
     d="m 11.773438,14.064453 2.839203,0.195933 4.310291,-0.380967"
     id="path6942" />
  <path
     class="outline"
     d="M 13.211911,12.106252 C 14.450525,12.867634 14.904095,14.148824 14.503039,16"
     id="path1059" />
  <path
     class="outline"
     d="m 11.996579,16 c -0.566614,-2.093318 -0.385011,-4.219154 3.311629,-4.250439 3.69664,-0.03129 4.019936,2.331621 3.509291,4.250439 z"
     id="path407" />
  <path
     class="baseline"
     d="m 10.935701,16 h 9.034848"
     id="path5179" />
  <circle
     class="basepoint"
     id="path5349"
     cx="16"
     cy="16"
     r="1" />
</svg>

<?xml version="1.0" encoding="UTF-8" standalone="no"?>
<svg
   version="1.0"
   width="32"
   height="32"
   id="svg2"
   sodipodi:docname="barrel.svg"
   inkscape:version="1.2.2 (b0a8486541, 2022-12-01)"
   xmlns:inkscape="http://www.inkscape.org/namespaces/inkscape"
   xmlns:sodipodi="http://sodipodi.sourceforge.net/DTD/sodipodi-0.dtd"
   xmlns="http://www.w3.org/2000/svg"
   xmlns:svg="http://www.w3.org/2000/svg">
  <defs
     id="defs12" />
  <sodipodi:namedview
     id="namedview18"
     pagecolor="#ffffff"
     bordercolor="#eeeeee"
     borderopacity="1"
     inkscape:showpageshadow="0"
     inkscape:pageopacity="0"
     inkscape:pagecheckerboard="0"
     inkscape:deskcolor="#505050"
     showgrid="false"
     inkscape:zoom="64"
     inkscape:cx="11.210938"
     inkscape:cy="13.40625"
     inkscape:window-width="2391"
     inkscape:window-height="1826"
     inkscape:window-x="1347"
     inkscape:window-y="249"
     inkscape:window-maximized="0"
     inkscape:current-layer="svg2"
     showguides="true">
    <sodipodi:guide
       position="16,21.058596"
       orientation="-1,0"
       id="guide163"
       inkscape:locked="false"
       inkscape:label=""
       inkscape:color="rgb(0,134,229)" />
    <sodipodi:guide
       position="27.817128,16"
       orientation="0,1"
       id="guide215"
       inkscape:locked="false"
       inkscape:label=""
       inkscape:color="rgb(0,134,229)" />
    <sodipodi:guide
       position="16,16"
       orientation="-0.25881905,0.96592583"
       id="guide1002"
       inkscape:locked="false"
       inkscape:label=""
       inkscape:color="rgb(0,134,229)" />
  </sodipodi:namedview>
  <style
     type="text/css"
     id="base">
      .outline {
        stroke: black;
        stroke-width: 0.5;
      }
      .fill {
        fill: none;
      }
      .base {
        fill: white;
        stroke: black;
        stroke-width: 0.5;
      }
      COLORING{}
  </style>
  <path
      class="fill horizontal12"
     id="path4699"
     d="M 18.958984 14.064453 L 11.773438 14.064453 C 11.713732 14.667803 11.816101 15.335028 11.996094 16 L 18.818359 16 C 18.986266 15.369067 19.061684 14.690512 18.958984 14.064453 z " />
  <path
      class="fill horizontal02"
     id="path4701"
     d="M 15.308594 11.75 C 12.786247 11.771347 11.901683 12.768471 11.773438 14.064453 L 18.958984 14.064453 C 18.74935 12.78652 17.789725 11.728999 15.308594 11.75 z " />
  <path
      class="fill vertical03"
     id="path4631"
     d="M 15.666016 16 C 15.679575 15.94444 15.693503 15.889425 15.705078 15.833984 C 15.717875 15.772691 15.729825 15.71146 15.740234 15.650391 C 15.750644 15.589321 15.759515 15.529513 15.767578 15.46875 C 15.775641 15.407987 15.781352 15.347483 15.787109 15.287109 C 15.792867 15.226736 15.797289 15.16537 15.800781 15.105469 C 15.804273 15.045567 15.807327 14.987081 15.808594 14.927734 C 15.809861 14.868387 15.809511 14.80871 15.808594 14.75 C 15.807677 14.69129 15.805795 14.632209 15.802734 14.574219 C 15.799674 14.516229 15.796179 14.459531 15.791016 14.402344 C 15.785852 14.345156 15.778711 14.288724 15.771484 14.232422 C 15.764258 14.176119 15.757295 14.119788 15.748047 14.064453 C 15.738799 14.009118 15.728026 13.954675 15.716797 13.900391 C 15.705567 13.846106 15.692858 13.791433 15.679688 13.738281 C 15.666517 13.685129 15.653743 13.632015 15.638672 13.580078 C 15.623601 13.528142 15.606774 13.478373 15.589844 13.427734 C 15.572913 13.377096 15.555859 13.326602 15.537109 13.277344 C 15.51836 13.228086 15.49709 13.178654 15.476562 13.130859 C 15.456035 13.083065 15.436328 13.036483 15.414062 12.990234 C 15.391797 12.943985 15.367713 12.898136 15.34375 12.853516 C 15.319787 12.808895 15.295152 12.765566 15.269531 12.722656 C 15.243911 12.679747 15.21669 12.638772 15.189453 12.597656 C 15.162217 12.55654 15.134281 12.515802 15.105469 12.476562 C 15.076656 12.437323 15.047926 12.398609 15.017578 12.361328 C 14.987231 12.324047 14.95567 12.287193 14.923828 12.251953 C 14.891986 12.216714 14.859468 12.183506 14.826172 12.150391 C 14.792876 12.117275 14.759319 12.085596 14.724609 12.054688 C 14.6899 12.023779 14.65327 11.993463 14.617188 11.964844 C 14.581105 11.936224 14.545227 11.90906 14.507812 11.882812 C 14.471141 11.857086 14.434398 11.831963 14.396484 11.808594 C 11.58562 12.163691 11.480332 14.094551 11.996094 16 L 15.666016 16 z " />
  <path
      class="fill vertical23"
     id="path4637"
     d="M 16.207031 11.796875 C 16.24494 11.820242 16.281692 11.843417 16.318359 11.869141 C 16.355774 11.895388 16.393605 11.924506 16.429688 11.953125 C 16.46577 11.981744 16.500447 12.010107 16.535156 12.041016 C 16.569866 12.071924 16.603423 12.105557 16.636719 12.138672 C 16.670015 12.171787 16.702533 12.204995 16.734375 12.240234 C 16.766217 12.275474 16.797778 12.312329 16.828125 12.349609 C 16.858472 12.38689 16.889156 12.425604 16.917969 12.464844 C 16.946781 12.504083 16.974717 12.542868 17.001953 12.583984 C 17.02919 12.6251 17.054458 12.668028 17.080078 12.710938 C 17.105698 12.753847 17.130333 12.797176 17.154297 12.841797 C 17.17826 12.886417 17.202343 12.932267 17.224609 12.978516 C 17.246875 13.024765 17.268535 13.071346 17.289062 13.119141 C 17.30959 13.166935 17.328907 13.216367 17.347656 13.265625 C 17.366406 13.314883 17.38346 13.363424 17.400391 13.414062 C 17.417321 13.464701 17.434148 13.516423 17.449219 13.568359 C 17.464289 13.620296 17.477064 13.67341 17.490234 13.726562 C 17.503405 13.779715 17.516114 13.832434 17.527344 13.886719 C 17.538573 13.941004 17.549346 13.997399 17.558594 14.052734 C 17.567842 14.108069 17.576758 14.162447 17.583984 14.21875 C 17.591211 14.275053 17.596399 14.333437 17.601562 14.390625 C 17.606726 14.447813 17.610221 14.50451 17.613281 14.5625 C 17.616342 14.62049 17.620177 14.679572 17.621094 14.738281 C 17.622011 14.796991 17.620408 14.854716 17.619141 14.914062 C 17.617873 14.973409 17.616773 15.033848 17.613281 15.09375 C 17.609789 15.153652 17.605367 15.213064 17.599609 15.273438 C 17.593852 15.333811 17.586188 15.394315 17.578125 15.455078 C 17.570062 15.515841 17.561191 15.577602 17.550781 15.638672 C 17.540372 15.699741 17.528422 15.760972 17.515625 15.822266 C 17.503246 15.88156 17.48926 15.940572 17.474609 16 L 18.818359 16 C 19.284105 14.249899 19.055564 12.132263 16.207031 11.796875 z " />
  <path
      class="fill vertical13"
     id="path4640"
     d="M 15.308594 11.75 C 14.976835 11.752808 14.67362 11.773583 14.396484 11.808594 C 14.434398 11.831963 14.471142 11.857087 14.507812 11.882812 C 14.545227 11.90906 14.581105 11.936224 14.617188 11.964844 C 14.653269 11.993463 14.6899 12.023779 14.724609 12.054688 C 14.759319 12.085595 14.792876 12.117275 14.826172 12.150391 C 14.859468 12.183506 14.891986 12.216714 14.923828 12.251953 C 14.95567 12.287193 14.987231 12.324047 15.017578 12.361328 C 15.047926 12.398609 15.076656 12.437324 15.105469 12.476562 C 15.134281 12.515802 15.162217 12.55654 15.189453 12.597656 C 15.21669 12.638772 15.243911 12.679747 15.269531 12.722656 C 15.295152 12.765566 15.319787 12.808895 15.34375 12.853516 C 15.367713 12.898136 15.391798 12.943985 15.414062 12.990234 C 15.436328 13.036483 15.456036 13.083065 15.476562 13.130859 C 15.49709 13.178654 15.51836 13.228086 15.537109 13.277344 C 15.555859 13.326602 15.572913 13.377096 15.589844 13.427734 C 15.606774 13.478373 15.623601 13.528142 15.638672 13.580078 C 15.653743 13.632015 15.666517 13.685129 15.679688 13.738281 C 15.692857 13.791433 15.705567 13.846106 15.716797 13.900391 C 15.728026 13.954675 15.738799 14.009118 15.748047 14.064453 C 15.757295 14.119788 15.764258 14.176119 15.771484 14.232422 C 15.778711 14.288724 15.785852 14.345156 15.791016 14.402344 C 15.796179 14.459531 15.799674 14.516229 15.802734 14.574219 C 15.805795 14.632209 15.807677 14.69129 15.808594 14.75 C 15.809511 14.80871 15.809861 14.868387 15.808594 14.927734 C 15.807327 14.987081 15.804273 15.045567 15.800781 15.105469 C 15.797289 15.16537 15.792867 15.226736 15.787109 15.287109 C 15.781352 15.347483 15.775641 15.407987 15.767578 15.46875 C 15.759515 15.529513 15.750644 15.589321 15.740234 15.650391 C 15.729825 15.71146 15.717875 15.772691 15.705078 15.833984 C 15.693503 15.889425 15.679575 15.94444 15.666016 16 L 17.474609 16 C 17.48926 15.940572 17.503246 15.88156 17.515625 15.822266 C 17.528422 15.760972 17.540372 15.699741 17.550781 15.638672 C 17.561191 15.577602 17.570062 15.515841 17.578125 15.455078 C 17.586188 15.394315 17.593852 15.333811 17.599609 15.273438 C 17.605367 15.213064 17.609789 15.153652 17.613281 15.09375 C 17.616773 15.033848 17.617873 14.973409 17.619141 14.914062 C 17.620408 14.854716 17.622011 14.796991 17.621094 14.738281 C 17.620177 14.679572 17.616342 14.62049 17.613281 14.5625 C 17.610221 14.50451 17.606726 14.447813 17.601562 14.390625 C 17.596399 14.333437 17.591211 14.275053 17.583984 14.21875 C 17.576758 14.162447 17.567842 14.108069 17.558594 14.052734 C 17.549346 13.997399 17.538573 13.941004 17.527344 13.886719 C 17.516114 13.832434 17.503405 13.779715 17.490234 13.726562 C 17.477064 13.67341 17.464289 13.620296 17.449219 13.568359 C 17.434148 13.516423 17.417321 13.464701 17.400391 13.414062 C 17.38346 13.363424 17.366406 13.314883 17.347656 13.265625 C 17.328907 13.216367 17.30959 13.166935 17.289062 13.119141 C 17.268535 13.071346 17.246875 13.024765 17.224609 12.978516 C 17.202343 12.932267 17.17826 12.886417 17.154297 12.841797 C 17.130333 12.797176 17.105698 12.753847 17.080078 12.710938 C 17.054458 12.668028 17.02919 12.6251 17.001953 12.583984 C 16.974717 12.542868 16.946781 12.504083 16.917969 12.464844 C 16.889156 12.425604 16.858472 12.38689 16.828125 12.349609 C 16.797778 12.312329 16.766217 12.275474 16.734375 12.240234 C 16.702533 12.204995 16.670015 12.171787 16.636719 12.138672 C 16.603423 12.105557 16.569866 12.071924 16.535156 12.041016 C 16.500447 12.010107 16.46577 11.981744 16.429688 11.953125 C 16.393605 11.924506 16.355774 11.895388 16.318359 11.869141 C 16.281692 11.843417 16.24494 11.820242 16.207031 11.796875 C 15.932428 11.764543 15.633622 11.747249 15.308594 11.75 z " />
  <path
      class="fill vertical02"
     id="path245"
     d="M 16.162109 16 C 16.164419 15.990894 16.167666 15.98176 16.169922 15.972656 C 16.185146 15.911221 16.200094 15.850356 16.212891 15.789062 C 16.225687 15.727769 16.237637 15.666538 16.248047 15.605469 C 16.258457 15.544399 16.267327 15.482638 16.275391 15.421875 C 16.283454 15.361112 16.289165 15.300608 16.294922 15.240234 C 16.300679 15.179861 16.307055 15.120448 16.310547 15.060547 C 16.314039 15.000645 16.315139 14.940206 16.316406 14.880859 C 16.317673 14.821512 16.317323 14.763788 16.316406 14.705078 C 16.315489 14.646368 16.313608 14.587287 16.310547 14.529297 C 16.307486 14.471307 16.303992 14.414609 16.298828 14.357422 C 16.293664 14.300234 16.288476 14.241849 16.28125 14.185547 C 16.274024 14.129244 16.265108 14.074866 16.255859 14.019531 C 16.246611 13.964196 16.235839 13.909754 16.224609 13.855469 C 16.21338 13.801184 16.20067 13.746511 16.1875 13.693359 C 16.17433 13.640207 16.161555 13.587093 16.146484 13.535156 C 16.131414 13.48322 16.114587 13.431498 16.097656 13.380859 C 16.080726 13.330221 16.063671 13.28168 16.044922 13.232422 C 16.026172 13.183164 16.006856 13.133732 15.986328 13.085938 C 15.9658 13.038143 15.944141 12.991561 15.921875 12.945312 C 15.899609 12.899064 15.875526 12.853214 15.851562 12.808594 C 15.827599 12.763973 15.802964 12.720644 15.777344 12.677734 C 15.751723 12.634825 15.726455 12.591897 15.699219 12.550781 C 15.671982 12.509665 15.642094 12.47088 15.613281 12.431641 C 15.584469 12.392401 15.555738 12.353687 15.525391 12.316406 C 15.495043 12.279125 15.463483 12.242271 15.431641 12.207031 C 15.399799 12.171792 15.367281 12.138584 15.333984 12.105469 C 15.300688 12.072353 15.267131 12.040674 15.232422 12.009766 C 15.197712 11.978857 15.163036 11.948541 15.126953 11.919922 C 15.090871 11.891302 15.05304 11.864138 15.015625 11.837891 C 14.978654 11.811955 14.942529 11.785259 14.904297 11.761719 C 11.601247 11.941984 11.45101 13.986223 11.996094 16 L 16.162109 16 z " />
  <path
      class="fill vertical12"
     id="path3887"
     d="M 15.308594 11.75 C 15.168134 11.751189 15.034759 11.754599 14.904297 11.761719 C 14.942529 11.785259 14.978654 11.811955 15.015625 11.837891 C 15.05304 11.864138 15.090871 11.891302 15.126953 11.919922 C 15.163036 11.948541 15.197712 11.978857 15.232422 12.009766 C 15.267131 12.040674 15.300688 12.072353 15.333984 12.105469 C 15.367281 12.138584 15.399799 12.171792 15.431641 12.207031 C 15.463483 12.242271 15.495043 12.279125 15.525391 12.316406 C 15.555738 12.353687 15.584469 12.392401 15.613281 12.431641 C 15.642094 12.47088 15.671982 12.509665 15.699219 12.550781 C 15.726455 12.591897 15.751723 12.634825 15.777344 12.677734 C 15.802964 12.720644 15.827599 12.763973 15.851562 12.808594 C 15.875526 12.853214 15.899609 12.899064 15.921875 12.945312 C 15.944141 12.991561 15.9658 13.038143 15.986328 13.085938 C 16.006856 13.133732 16.026172 13.183164 16.044922 13.232422 C 16.063671 13.28168 16.080726 13.330221 16.097656 13.380859 C 16.114587 13.431498 16.131414 13.48322 16.146484 13.535156 C 16.161555 13.587093 16.17433 13.640207 16.1875 13.693359 C 16.20067 13.746511 16.21338 13.801184 16.224609 13.855469 C 16.235839 13.909754 16.246611 13.964196 16.255859 14.019531 C 16.265108 14.074866 16.274024 14.129244 16.28125 14.185547 C 16.288476 14.241849 16.293664 14.300234 16.298828 14.357422 C 16.303992 14.414609 16.307486 14.471307 16.310547 14.529297 C 16.313608 14.587287 16.315489 14.646368 16.316406 14.705078 C 16.317323 14.763788 16.317673 14.821512 16.316406 14.880859 C 16.315139 14.940206 16.314039 15.000645 16.310547 15.060547 C 16.307055 15.120448 16.300679 15.179861 16.294922 15.240234 C 16.289165 15.300608 16.283454 15.361112 16.275391 15.421875 C 16.267327 15.482638 16.258457 15.544399 16.248047 15.605469 C 16.237637 15.666538 16.225687 15.727769 16.212891 15.789062 C 16.200094 15.850356 16.185146 15.911221 16.169922 15.972656 C 16.167666 15.98176 16.164419 15.990894 16.162109 16 L 18.818359 16 C 19.329004 14.081184 19.00523 11.71871 15.308594 11.75 z " />
  <path
      class="fill uniform cross02"
     d="m 11.996579,16 c -0.566614,-2.093318 -0.385011,-4.219154 3.311629,-4.250439 3.69664,-0.03129 4.019936,2.331621 3.509291,4.250439 z"
     id="path3885"/>
  <g id="g6948">
    <path
      class="inline cross12"
       d="m 11.773438,14.173828 h 7.185546"
       id="path6942" />
    <path
      class="inline cross12"
       d="m 14.873047,11.761719 c 1.238614,0.761382 1.692184,2.042572 1.291128,3.893748"
       id="path6944"/>
  </g>
  <path
      class="outline"
     d="M 13.211911,12.106252 C 14.450525,12.867634 14.904095,14.148824 14.503039,16"
     id="path1059" />
  <path
      class="outline"
     d="m 11.996579,16 c -0.566614,-2.093318 -0.385011,-4.219154 3.311629,-4.250439 3.69664,-0.03129 4.019936,2.331621 3.509291,4.250439 z"
     id="path407" />
  <path
     class="outline"
     d="m 10.935701,16 h 9.034848"
     id="path5179" />
  <circle
     class="base"
     id="path5349"
     cx="16"
     cy="16"
     r="1" />
</svg>
